X:43
T: Ye Gods! Was Strephon's Picture Blest 
N: HA043
O: Europa, Mitteleuropa, Deutschland
N: Vorschlge; Triller
M: 4/4
L: 1/16
K: D
D2E2 | F6d2AF3E2D2 | F4A3BA4
E3F | G6ABA2F2E2D2 | F4E3FE4
D2E2 | F6d2AF3E2D2 | F4d3ed4
F2G2 | A2B2A2F2G2F2E2D2 | B,4D3ED4
A2B2 | d2e2f2e2d2B2A2F2 | A4d3ed4
E3F | G6ABA2F2E2D2 | F4E2F2E4
D2E2 | F2D2F2D2B,2D2E2F2 | G2F2G2A2B2A2
B2c2 | d2c2d2e2f2e2f2A2 | B4d3ed4

@@@ Tune index: 7268
